X: 1380
T: The Spinners Delight
M:C|
L:1/8
N:"collected by J. O'Neill"
B:O'Neill's 1380
Z:"Transcribed by Bob Safranek, rjs@gsp.org"
K:A
(ed) | c2 (cB) Acec | dcBA GABd | (cA)ce (fd)fa        | ((3gab) (eg) afed |
       c2 (cB) Acec | dcBA GABd | ((3cBA) ((3cde) dBGB | AcBG A2 ||
(cd) | e2 (ag) aecA | B2 (Bc) dcBc | Aced    ceba | ge^de fe=dB |
       e2 (ag) aecA | d2 (fg) fgaf | e2 (gf) edcB | AcBG  A2 |]


